public/assets/icons/stars.svg

<svg width="20" height="20" viewBox="0 0 20 20" fill="none" xmlns="http://www.w3.org/2000/svg">
<path d="M12.793 3.32837C12.6172 3.39478 12.5 3.56274 12.5 3.75024C12.5 3.93774 12.6172 4.10571 12.793 4.17212L15 5.00024L15.8281 7.20728C15.8945 7.38306 16.0625 7.50024 16.25 7.50024C16.4375 7.50024 16.6055 7.38306 16.6719 7.20728L17.5 5.00024L19.707 4.17212C19.8828 4.10571 20 3.93774 20 3.75024C20 3.56274 19.8828 3.39478 19.707 3.32837L17.5 2.50024L16.6719 0.293213C16.6055 0.117432 16.4375 0.000244141 16.25 0.000244141C16.0625 0.000244141 15.8945 0.117432 15.8281 0.293213L15 2.50024L12.793 3.32837ZM8.01172 2.86353C7.91016 2.64087 7.6875 2.50024 7.44531 2.50024C7.20313 2.50024 6.98047 2.64087 6.87891 2.86353L4.81641 7.31665L0.363281 9.37524C0.140625 9.47681 0 9.69946 0 9.94556C0 10.1917 0.140625 10.4104 0.363281 10.512L4.82031 12.5706L6.875 17.0237C6.97656 17.2463 7.19922 17.387 7.44141 17.387C7.68359 17.387 7.90625 17.2463 8.00781 17.0237L10.0664 12.5667L14.5234 10.5081C14.7461 10.4065 14.8867 10.1838 14.8867 9.94165C14.8867 9.69946 14.7461 9.47681 14.5234 9.37524L10.0703 7.32056L8.01172 2.86353ZM15 15.0002L12.793 15.8284C12.6172 15.8948 12.5 16.0627 12.5 16.2502C12.5 16.4377 12.6172 16.6057 12.793 16.6721L15 17.5002L15.8281 19.7073C15.8945 19.8831 16.0625 20.0002 16.25 20.0002C16.4375 20.0002 16.6055 19.8831 16.6719 19.7073L17.5 17.5002L19.707 16.6721C19.8828 16.6057 20 16.4377 20 16.2502C20 16.0627 19.8828 15.8948 19.707 15.8284L17.5 15.0002L16.6719 12.7932C16.6055 12.6174 16.4375 12.5002 16.25 12.5002C16.0625 12.5002 15.8945 12.6174 15.8281 12.7932L15 15.0002Z" fill="#7986AC"/>
</svg>

<?xml version="1.0"?>
<svg width="20" height="20" xmlns="http://www.w3.org/2000/svg" xmlns:svg="http://www.w3.org/2000/svg">
 <g class="layer">
  <title>Layer 1</title>
  <path d="m12.79,3.33c-0.17,0.06 -0.29,0.23 -0.29,0.42c0,0.19 0.12,0.36 0.29,0.42l2.21,0.83l0.83,2.21c0.06,0.17 0.23,0.29 0.42,0.29c0.19,0 0.36,-0.12 0.42,-0.29l0.83,-2.21l2.21,-0.83c0.17,-0.06 0.29,-0.23 0.29,-0.42c0,-0.19 -0.12,-0.36 -0.29,-0.42l-2.21,-0.83l-0.83,-2.21c-0.06,-0.17 -0.23,-0.29 -0.42,-0.29c-0.19,0 -0.36,0.12 -0.42,0.29l-0.83,2.21l-2.21,0.83zm-4.78,-0.47c-0.1,-0.22 -0.32,-0.36 -0.56,-0.36c-0.25,0 -0.47,0.14 -0.57,0.36l-2.06,4.46l-4.46,2.06c-0.22,0.1 -0.36,0.32 -0.36,0.57c0,0.24 0.14,0.46 0.36,0.56l4.46,2.06l2.06,4.45c0.1,0.23 0.32,0.37 0.56,0.37c0.24,0 0.47,-0.14 0.57,-0.37l2.06,-4.45l4.45,-2.06c0.23,-0.1 0.37,-0.33 0.37,-0.57c0,-0.24 -0.14,-0.46 -0.37,-0.56l-4.45,-2.06l-2.06,-4.46zm6.99,12.14l-2.21,0.83c-0.17,0.06 -0.29,0.23 -0.29,0.42c0,0.19 0.12,0.36 0.29,0.42l2.21,0.83l0.83,2.21c0.06,0.17 0.23,0.29 0.42,0.29c0.19,0 0.36,-0.12 0.42,-0.29l0.83,-2.21l2.21,-0.83c0.17,-0.06 0.29,-0.23 0.29,-0.42c0,-0.19 -0.12,-0.36 -0.29,-0.42l-2.21,-0.83l-0.83,-2.21c-0.06,-0.17 -0.23,-0.29 -0.42,-0.29c-0.19,0 -0.36,0.12 -0.42,0.29l-0.83,2.21z" fill="#000000" id="svg_1"/>
 </g>
</svg>
